X:1
T:Exaltabo te Domine - Scarlatti
T:James Gibb editions
T:#
%%score [ 1 2 3 4 ]
L:1/8
Q:1/4=100
M:4/4
K:F
V:1 treble nm="Soprano" snm="S"
V:2 treble nm="Alto" snm="A"
V:3 treble-8 nm="Tenor" snm="T"
V:4 bass nm="Bass" snm="B"
V:1
"^Psalm 30: 2-3" z8 |"^Exaltabo te, Domine" z8 | z4 d4 | %3
w: ||Ex-|
"^Alessandro Scarlatti\n(1660-1725)" c2 f3 e d2 | (c=B A3 B c2 |[M:4/4] A2 d3 c B2 | AG F3 GA=B | %7
w: al- ta- bo te,|Do\- * * * *|||
 c3 =B A2) B2 | c4 z4 | z8 | z4 d4 | c2 f3 e d2 | (c3 B AG A2 | B4 c2 d2- | dc B2 A4- | A2 BA G4- | %16
w: * * * mi-|ne,||ex-|al- ta- bo te,|Do\- * * * *||||
 G2) G2 F4 | A3 A A4 | z2 B3 B B2 | z4 z2 B2- | BA G2 A4 | B6 A2- | A2 G4 (F2- | F2 E2) F4 | z8 | %25
w: * mi- ne,|quo- ni- am,|quo- ni- am|su\-|* sce- pi- sti,|su- sce\-|* pi- sti|* * me,||
 c2 d3 d e2 | f4 z4 | z2 F2 G3 G | (AB c3 B/A/ G2) | A4 z2 B2 | cc (d4 c2 | fe d3 c =B2) | %32
w: nec de- le- cta-|sti,|nec de- le-|cta\- * * * * *|sti, nec|de- le- cta\- *||
 c2 GG GG A2 | G2 =BB BB c2 | A2 B2 G4 | A8 | A3 A A4 | z2 A2 (^c3 d | e3 d ^c3 =B | A8) | %40
w: sti i- ni- mi- cos me-|os, i- ni- mi- cos me-|os su- per|me:|Do- mi- ne,|cla- ma\- *|||
 A2 (A4 G2) | A2 A4 A2 | (AB c4 BA) | B6 (AG) | (^F2 G4) F2 | G4 z4 | G3 G G4 | =B3 B B4 | %48
w: vit ad *|te, et sa-|na\- * * * *|sti, sa\- *|na\- * sti|me.|Do- mi- ne,|Do- mi- ne,|
 z2 E2 (^G3 A | =B6 A2- | A2 ^G^F) G4 | A4 ^G2 G2- | G2 ^G2 A4- | A4 A2 A2 | (G6 F2) || %55
w: cla- ma\- *||* * * vi|ad te, et|* sa- na\-|* sti, sa-|na\- *|
[M:3/2] x12 |[M:3/2] E3 E ^F2 A2[Q:1/4=98] (d3[Q:1/4=96] c || %57
w: |* sti me, sa- na\- *|
[M:4/4][Q:1/4=95] B2[Q:1/4=93] A4[Q:1/4=91] G[Q:1/4=90]^F |[Q:1/4=87] G6[Q:1/4=84] ^F2) | %59
w: |* sti|
[Q:1/4=84] ^F8 |] %60
w: me.|
V:2
 z4 A4 | F2 B3 A G2 | (FE D3 EFG | A3 G F2 GF | ED C3 DEC |[M:4/4] F3 E D3 E | FG A3) G F2 | z8 | %8
w: Ex-|al- ta- bo te,|Do\- * * * * *||||* * * mi- ne,||
 z4 A4 | F2 _B3 A G2 | (FE D3 EFG | A6) F2 | G4 z4 | z2 D2 C2 (F2- | FE) D2 C2 (F2- | FE D4 ^C=B, | %16
w: ex-|al- ta- bo te,|Do\- * * * * *|* mi-|ne,|ex- al- ta\-|* * bo te, Do\-||
 ^C2) C2 D4 | F3 F F4 | z2 F3 F F2 | F3 E D2 E2 | CD (ED/E/) F4 | z4 F3 E | (D4 EC F2 | G3) G C4 | %24
w: * mi- ne,|quo- ni- am,|quo- ni- am|su- sce- pi- sti,|su- sce- pi\- * * sti,|su- sce-|pi\- * * *|* sti me,|
 z8 | F4 G3 G | (AFBD E4 | F2 D3 C/B,/ C2- | C2) C2 z4 | z8 | F4 G3 G | (A2 D2 GE F2) | %32
w: |nec de- le-|cta\- * * * *||* sti,||nec de- le-|cta\- * * * *|
 E2 EE EE F2 | E2 GG GG G2 | F2 F4 E2 | F8 | z4 E3 E | E4 z4 | E2 (A4 G2 | F4 E4) | E2 (F3 E D2) | %41
w: sti i- ni- mi- cos me-|os, i- ni- mi- cos me-|os su- per|me:|Do- mi-|ne,|cla- ma\- *||vit ad * *|
 E2 E4 E2 | (A6 G^F) | G3 =F (_E4 | D4) D4 | D4 G3 G | G4 E3 E | E4 z2 E2 | (^G3 A =B3 A | %49
w: te, et sa-|na\- * *|sti, sa- na\-|* sti|me. Do- mi-|ne, Do- mi-|ne, cla-|ma\- * * *|
 ^G3 ^F E4- | E4 E2 (E2- | E2 D2) E2 E2- | E2 E2 EF G2- | G2 FE F4- | F2 ED ^C2 D2-) || %55
w: |* vi ad|* * te, et|* sa- na\- * *|||
[M:3/2] x12 |[M:3/2] D2 ^C2 D8 ||[M:4/4] D2 D4 D2 | D8- | D8 |] %60
w: |* sti me,|sa- na- sti|me.||
V:3
 z8 | z8 | z8 | z8 | z8 |[M:4/4][K:treble-8] z8 | z4 d4 | c2 f3 e d2 | (c=B A3 B c2 | d3 c B2 cG | %10
w: ||||||Ex-|al- ta- bo te,|Do\- * * * *||
 A2 f3 e d2 | edcB A2) d2 | e4 (f3 e | dcBA G2 FG | A2 de fe c2 | d4 eE G2- | G2) G2 A4 | d3 d d4 | %18
w: |* * * * * mi-|ne, Do\- *||||* mi- ne,|quo- ni- am,|
 z2 d3 d d2 | z2 B3 A G2 | F2 c3 B (A2- | AG/F/) G2 c4 | z4 c3 c | B2 B2 A2 c2- | c2 d3 d e2 | %25
w: quo- ni- am|su- sce- pi-|sti, su- sce- pi\-|* * * sti me,|su- sce-|pi- sti me, nec|* de- le- cta-|
 f4 z4 | F4 GG (A2- | AF=BA G4- | G2 F2) E2 c2- | c2 d3 d e2 | c2 z2 z2 B2 | cA (=B3 G d2) | %32
w: sti,|nec de- le- cta\-||* * sti, nec|* de- le- cta-|sti nec|de- le- cta\- * *|
 G2 cc cc c2 | c2 dd dd e2 | c2 d2 c4 | c8 | z4 ^c3 c | ^c4 z2 A2 | (^c3 d e4- | e2 d4 ^c=B) | %40
w: sti i- ni- mi- cos me-|os, i- ni- mi- cos me-|os su- per|me:|Do- mi-|ne, cla-|ma\- * *||
 ^c4 d4 | ^c2 c4 c2 | d8 | d2 d2 (c4- | c2 B2 A3) A | =B4 z4 | e3 e e4 | ^G3 G G4 | z4 =B2 (e2- | %49
w: vit ad|te, et sa-|na-|sti, sa- na\-|* * * sti|me.|Do- mi- ne,|Do- mi- ne,|cla- ma\-|
 e2 d2 c4 | =B4 B2 (c2- | c=B A2) B2 B2- | B2 =B2 e4- | e2 d^c d3 =c | B4 A4) ||[M:3/2] x12 | %56
w: |* vi ad|* * * te, et|* sa- na\-||||
[M:3/2][K:treble-8] A4 A4 z2 A2 ||[M:4/4] (d3 c B4- | B2 A2) A4 | A8 |] %60
w: sti me, sa-|na\- * *|* * sti|me.|
V:4
 z8 | z8 | z8 | z8 | z4 A,4 |[M:4/4] F,2 B,3 A, G,2 | (F,E, D,3 E,F,G, | A,3 G, F,2 G,F, | %8
w: ||||Ex-|al- ta- bo te,|Do\- * * * * *||
 E,2 F,3 G,A,F, | _B,3 A, G,F, E,2 | D,3 C, B,,2) B,,2 | A,,2 A,2 D,2 B,2- | B,A, G,2 (F,E, D,2 | %13
w: ||* * * mi-|ne, ex- al- ta\-|* bo te Do\- * *|
 G,3 F, E,2 D,E, | F,2 G,2 A,3 G, | F,2 G,2 E,4- | E,2) E,2 D,4 | D,3 D, D,4 | z2 B,,3 B,, B,,2 | %19
w: |||* mi- ne,|quo- ni- am,|quo- ni- am|
 z8 | z4 F,3 E, | D,2 E,2 F,4 | B,4 A,4 | G,3 G, F,4 | F,4 G,3 G, | (A,F, B,3 A, G,2) | D,4 C,4 | %27
w: |su- sce-|pi- sti me,|su- sce-|pi- sti me,|nec de- le-|cta\- * * * *|sti, nec|
 D,3 D, (E,4- | A,,3 B,, C,4) | F,2 F,2 G,3 G, | (A,F, B,3 A, G,2 | F,2 G,F, E,2 D,2) | %32
w: de- le- cta\-||sti, nec de- le-|cta\- * * * *||
 C,2 C,C, C,C, F,,2 | C,2 G,G, G,G, C,2 | F,2 B,,2 C,4 | F,8 | z4 A,3 A, | A,4 A,4 | A,8- | A,8 | %40
w: sti i- ni- mi- cos me-|os, i- ni- mi- cos me-|os su- per|me:|Do- mi-|ne, cla-|ma\-||
 A,4 B,4 | A,2 A,4 A,2 | (^F,4 G,4) | G,2 G,2 (C,4 | D,6) D,2 | G,,4 z4 | C3 C C4 | E,3 E, E,4 | %48
w: vit ad|te, et sa-|na\- *|sti, sa- na\-|* sti|me.|Do- mi- ne,|Do- mi- ne,|
 E,4 E,4- | E,8 | E,4 E,4 | F,4 E,2 E,2- | E,2 E,2 (^C,4 | D,4) D,2 D,2 | (G,,4 A,,4-) || %55
w: cla- ma\-||* vi|ad te, et|* sa- na\-|* sti, sa-|na\- *|
[M:3/2] x12 |[M:3/2] A,,2 A,,2 D,4 D,4 ||[M:4/4] D,8- | D,4 D,4 | D,8 |] %60
w: |* sti me, sa-|na\-|* sti|me.|

